X:33
T:4. Allemaingne
C:Tielman Susato
B:Tielman Susato: Danserye (1551) no. 33
R:Allemande
Z:Transcribed by Frank Nordberg - http://www.musicaviva.com
F:http://abc.musicaviva.com/tunes/susato-tielman/susato-1551-33.abc
M:4/2
L:1/4
K:C
V:1
CB,CDC2C2|DCDED2F2|F2ED EFGE|F4z2C2|FEFGA2A2|GFGAG2F2|E2DC B,A,CB,|C4C4:|
|:FEFGF2E2|F6F2|G2F2F2E2|F4z4|F3ED2C2|F3ED2C2|F2G2A2F2|G6F2|E2DC B,CDB,|C4C4:|
V:2
G,4A,2G,2|_B,4B,2A,2|C4C2C2|A,4z2C2|C3_B,A,2F,2|G,4G,2A,2|C2A,2G,4|E,4E,4:|
|:F,3E, D,C,C2|C4C2C2|D4C4|A,4z4|_B,4B,2A,2|_B,4B,2A,2-|A,2G,2F,2C2|C3_B,/A,/G,2C2|C2A,2G,4|E,4E,4:|
V:3
C,4E,2E,2|F,E,F,G,F,2A,2|A,2A,2G,4|F,4z2A,2|A,G,A,_B,C4|C2C2_B,2A,2|G,2F,E, D,C,D,2|C,4C,4:|
|:A,4A,2G,2|F,E,F,G,A,2A,2|_B,3A,G,4|F,4z4|F,2D,E, F,G,A,2|F,2D,E, F,G,A,2|_B,4A,4|G,2C3_B,A,2|G,2F,E,D,4|C,4C,4:|
V:4
C,4A,,2C,2|_B,,4B,,2F,,2|F,,G,,A,,_B,,C,2C,2|F,,4z2F,2|F,4F,2F,,2|C,3D,E,2F,2|C,2F,,2G,,4|C,4C,4:|
|:D,3E,F,2C,2|F,,4F,,2F,2|_B,,4C,4|F,,4z4|_B,,3C, D,E,F,2|_B,,3C, D,E,F,2|D,2E,2F,2F,,2|C,3D,E,2F,2|C,2F,,2G,,4|C,4C,4:|
W:
W:
W:  From Musica Viva - http://www.musicaviva.com
W:  the Internet center for free sheet music downloads.
